X:346
T: ES WAR EINMAL EIN REITERSMANN
N: E0195
O: Europa, Mitteleuropa, Deutschland, Koenigsberg
R: erzaehlendes Volks - Lied, Sage, Familien - Geschichte
M: 4/4
L: 1/8
K: D
A2 | D2D2D2Dd | d2d_BA2z
G | =F3ED2EF | GAG=FE2z
E | A2A2G2A2 | =F3ED2EF | GAG=FE2
E2 | A2A2G2A2 | =F3ED2

@@@ Tune index: 3996
